X: 1
P: Tuberosa Cs\'ard\'as
O: Hungary
C: Trad.
Z: Aubrey Jaffer http://swissnet.ai.mit.edu/~jaffer/CFO.html
M: 4/4
Q: 1/4=170
L: 1/8
K: Em
V: 1
 |:[e^G][eG][eG][eG] [e=G][fA][d2F2] |[eG][fA][gB][fA] [eG][fA][d2F2]\
  |[e2G2][dF][^cE] [B2D2][B2D2]|
 [eG][AC][AC][AC] [A^C][BC][G2C2] |[AD][BD][cE][BD] [AC][BD][G2B,2]\
  |[A2C2][GB,][FA,] [E2G,2][E2G,2]:|
V: 2
K:Em bass
I: octave=-3
L:1/4
 |:"E"ee"A"e"D"d |"A"aaa"D"b |"Em"^c'"F#7"f"Bm"bb |
  "C"cc"A7"^cc |"D"ddd"G"G |"Am"F"B(m)"B"Em"ee:|
